X: 910
T: Alick C McGregor
R: reel
M: 4/4
K: Gmajor
g|dBAB GGGg|dBAG BBBg|dBAB GGGe|dBgB AAAg|
dBAB GGGg|dBAG BBBe|degd egde|BdAB GGG||
g|e2 de dBgd|e2 de BBBg|e2 de dBgd|e2 dB AAAg|
e2 de dBgd|e2 de BBBe|degd egde|BdAB GGG||
g|GGGB GGGB|GBAc BdBg|GGGB GGGe|dBgB AAAg|
GGGB GGGB|GBAc BdBg|egde deBd|BdAB GGG||
g|dBBd ecce|dBgd BBBg|dBBd ecce|dBgB AAAg|
dBBd ecce|dBgd BBBe|degd egde|BdAB GGG||

